src/components/00-materials/images-raw/Ski.svg

<svg width="96" height="96" viewBox="0 0 96 96" fill="none" xmlns="http://www.w3.org/2000/svg">
<path d="M31.7501 86.9183L33.8977 36.272M33.1415 36.2529C34.2304 36.0525 36.0603 34.8405 34.911 27.9788C34.7144 26.7191 36.8165 26.0224 36.0755 25.9938C34.886 25.8612 33.6604 25.975 32.5819 26.3183C30.3134 26.8336 27.6214 26.5473 27.1526 29.5725C29.2547 33.8384 25.1563 40.1275 27.3945 36.73C29.4211 33.6666 28.3171 29.5725 28.3171 29.5725C27.3945 25.7552 32.3097 27.1581 32.7029 28.0933L32.4609 34.9263C32.4609 34.9263 33.3079 35.3749 30.7822 36.2147L33.1415 36.2529Z" stroke="#00008F" stroke-width="2" stroke-linecap="round" stroke-linejoin="round"/>
<path d="M14.6151 31.8344C15.6586 31.5577 17.2617 30.2312 14.9629 23.484C14.5394 22.253 16.4753 21.4131 15.7796 21.4418C14.5704 21.3867 13.3656 21.581 12.3465 21.9953C10.199 22.6633 7.46161 22.5583 7.5221 25.6027C10.3351 29.6967 7.3255 36.2339 9.03446 32.7315C10.5468 29.5536 8.71687 25.5549 8.71687 25.5549C7.20451 21.8712 12.2709 22.8924 12.8305 23.7894L13.753 30.6034C13.753 30.6034 14.6604 30.9851 12.2407 31.9967L14.6151 31.8344Z" stroke="#00008F" stroke-width="2" stroke-linecap="round" stroke-linejoin="round"/>
<path d="M21.8742 82.299L15.3559 31.7958L21.8742 82.299ZM78.6027 6.96409C76.2283 6.86865 73.8388 8.95864 71.8576 10.9914C68.8329 14.0643 68.9387 17.0895 68.6967 20.8782C68.5758 22.6819 67.3205 38.3043 64.1597 53.8599C60.7569 71.7441 60.7115 71.7537 56.5374 88.0823L68.0162 89.0366C70.436 72.5267 70.3906 72.5171 74.0656 54.6807C77.2264 39.1251 82.1718 23.808 82.7768 22.033C84.032 18.3302 85.3024 15.4099 83.6086 11.9648C82.5046 9.64576 81.0073 7.24084 78.6027 6.96409Z" stroke="#00008F" stroke-width="2" stroke-linecap="round" stroke-linejoin="round"/>
<path d="M74.0657 54.6806C81.0528 71.5437 81.0377 71.3814 88.4785 87.0802L77.2417 88.9888C74.0657 80.0086 72.5534 76.0004 70.7537 71.2955M63.8876 54.6806C57.5962 39.7549 49.7168 25.3731 48.764 23.6935C46.7374 20.1147 44.8924 17.3281 45.8451 13.7779C46.4803 11.4207 47.4482 8.9204 49.7168 8.45277C52.0609 8.15693 54.8588 10.037 57.2786 11.8884C60.878 14.6846 61.4376 17.6907 62.466 21.4317C62.7533 22.491 64.4471 28.341 67.003 36.0807L63.8876 54.6806Z" stroke="#00008F" stroke-width="2" stroke-linecap="round" stroke-linejoin="round"/>
</svg>

<svg width="96" height="96" viewBox="0 0 96 96" fill="none" xmlns="http://www.w3.org/2000/svg"><path d="M31.75 86.918l2.148-50.646m-.757-.02c1.09-.2 2.92-1.412 1.77-8.273-.197-1.26 1.905-1.957 1.164-1.985a8.565 8.565 0 00-3.493.324c-2.269.516-4.96.23-5.43 3.255 2.103 4.265-1.996 10.554.242 7.157 2.027-3.063.923-7.157.923-7.157-.922-3.818 3.993-2.415 4.386-1.48l-.242 6.833s.847.449-1.679 1.289l2.36.038zM14.615 31.834c1.044-.276 2.647-1.603.348-8.35-.424-1.231 1.512-2.07.817-2.042-1.21-.055-2.414.139-3.433.553-2.148.668-4.885.563-4.825 3.608 2.813 4.094-.197 10.63 1.512 7.128 1.513-3.177-.317-7.176-.317-7.176-1.512-3.684 3.554-2.663 4.114-1.766l.922 6.814s.907.382-1.512 1.394l2.374-.163zM21.874 82.299l-6.518-50.503 6.518 50.503zM78.603 6.964c-2.375-.095-4.764 1.995-6.745 4.027-3.025 3.073-2.92 6.099-3.161 9.887-.121 1.804-1.377 17.426-4.537 32.982-3.403 17.884-3.448 17.894-7.623 34.222l11.48.955c2.419-16.51 2.374-16.52 6.049-34.356 3.16-15.556 8.106-30.873 8.71-32.648 1.256-3.703 2.526-6.623.833-10.068-1.104-2.32-2.602-4.724-5.006-5z" stroke="#00008F" stroke-width="2" stroke-linecap="round" stroke-linejoin="round"/><path d="M74.066 54.68c6.987 16.864 6.972 16.701 14.412 32.4L77.242 88.99c-3.176-8.98-4.689-12.989-6.488-17.694m-6.866-16.614c-6.292-14.926-14.171-29.308-15.124-30.987-2.027-3.58-3.872-6.366-2.919-9.916.635-2.357 1.603-4.858 3.872-5.325 2.344-.296 5.142 1.584 7.562 3.435 3.599 2.797 4.159 5.803 5.187 9.544.287 1.059 1.981 6.909 4.537 14.649l-3.115 18.6z" stroke="#00008F" stroke-width="2" stroke-linecap="round" stroke-linejoin="round"/></svg>
